include/images/hint.svg

<svg xmlns="http://www.w3.org/2000/svg" viewBox="0 0 32 32"><g fill="none" stroke-width="2"><path stroke="#85929a" d="m6.54 20.25 3.21 1.46"/><path stroke="#caafa4" d="m9.75 21.71 1.36 1.21a.69.59-39.8 0 0 .78.01L14 21.5"/><path stroke="#cbc5c3" d="m14 21.5-1.5 1.99a1.27.48 76.2 0 0-.11.89q.49 4.19 4.63 4.02a1.25.64 6.5 0 0 .85-.32q3.65-4.68-1.77-7.2a1.05.82-40.3 0 0-.82.03z"/><path stroke="#caafa4" d="M14 21.5q.8-1.41 2.21-1.18a.52.38 5.6 0 0 .6-.36q-.01-.42-.56-.5"/><path stroke="#85929a" d="M16.25 19.46q5.73-1.21.27-.61c-2.43.27-3.16-.7-5.59.54"/><path stroke="#caafa4" d="M10.93 19.39 9.46 21"/><path stroke="#85929a" d="m9.46 21-2.67-1.5"/><path stroke="#c2bdbd" d="M8.05 4.67C3.28 5.72.74 12.2 4.49 15.11q2.26 1.75 1.83-1.08Q5.63 9.46 8.46 6"/><path stroke="#d1b6b0" d="M8.46 6q-3.11 5.64-.9 11.77.37 1.02 1.06.19.99-1.21 2.63-1.5"/><path stroke="#caafa4" d="m11.25 16.46 6.04-.21"/><path stroke="#d1b6b0" d="M17.29 16.25q3.66-.37 6.33 1.91a.4.39 34.9 0 0 .6-.1q.67-1.25 1.78-2.1"/><path stroke="#c2bdbd" d="M26 15.96c4.85-3.51 3.71-10.06-2.43-11.26"/><path stroke="#d1b6b0" d="M23.57 4.7Q15.92.24 8.05 4.67"/><path stroke="#e5d1ce" d="M23.57 4.7c2.38 4.31 2.36 5.74 2.43 11.26"/><path stroke="#edc3b4" d="M17.29 16.25q1.11-.66 1-2"/><path stroke="#a8a6aa" d="M18.29 14.25q6.02 1.52 5-4.5"/><path stroke="#e5d1ce" d="M23.29 9.75c-1.24-2.8-4.06-3.24-6.03-1.01q-.7.79-1.47 1.51"/><path stroke="#a8a6aa" d="m15.79 10.25-.29-.21"/><path stroke="#e5d1ce" d="M15.5 10.04Q12.17 4.58 8.71 10"/><path stroke="#a8a6aa" d="M8.71 10q-.98 3.31 2.29 4.54"/><path stroke="#edc3b4" d="m11 14.54.25 1.92"/><path stroke="#e5d1ce" d="M8.46 6q1.21-1.74-.41-1.33"/><path stroke="#99adb8" d="M23.29 9.75q-.08 5.97-5.83 3.75"/><path stroke="#decac2" d="m17.46 13.5-1.67-2"/><path stroke="#99adb8" d="M15.79 11.5v-1.25"/><path stroke="#a19f9e" d="m18.29 14.25-.83-.75"/><path stroke="#99adb8" d="M15.5 10.04c-.8 6.06-7.58 4.66-6.79-.04"/><path stroke="#a19f9e" d="M15.79 11.5q-1.17 3.43-4.79 3.04"/><path stroke="#99adb8" d="M21.35 11.21c.27-1.12-2.32-1.28-2.58-.12a.5.32 1.1 0 0 .55.37l1.43-.09a.65.15-2.2 0 0 .6-.16m-7.69-.05c.06-.68-2.14-.98-2.66-.2a.33.19 12.9 0 0 .33.31l1.68.14a.63.3 4.4 0 0 .65-.25"/><path stroke="#a19f9e" d="M16.25 19.46q-2.62-.74-5.32-.07m-1.18 2.32L9.46 21"/></g><path fill="#ada29f" d="M16.44 32h-.75q-2.77-2.68-5.16-7.56-.96-1.95-3.54-3.04a1.01.57 15.1 0 1-.63-.62q-.03-.29.18-.53l3.21 1.46 1.36 1.21a.69.59-39.8 0 0 .78.01L14 21.5l-1.5 1.99a1.27.48 76.2 0 0-.11.89q.49 4.19 4.63 4.02a1.25.64 6.5 0 0 .85-.32q3.65-4.68-1.77-7.2a1.05.82-40.3 0 0-.82.03L14 21.5q.8-1.41 2.21-1.18a.52.38 5.6 0 0 .6-.36q-.01-.42-.56-.5 5.73-1.21.27-.61c-2.43.27-3.16-.7-5.59.54L9.46 21l-2.67-1.5q-1.4-1.77-3.55-2.91a1.39 1.21 7.4 0 1-.62-.7c-2.05-5.83-1.49-10.54 4.84-13Q19.25-1.68 29.11 5.7a1.65.8 25.7 0 1 .64.8q1.21 4.64-.21 9.22a1.12.01-39.9 0 1-.85.72l-2.86 2.39a1 .71 68.4 0 0-.22.89c.35 1.63-2.67 2.86-3.77 3.97a1.98 1.51 81 0 0-.46.85q-1.15 4.58-4.94 7.46M8.05 4.67C3.28 5.72.74 12.2 4.49 15.11q2.26 1.75 1.83-1.08Q5.63 9.46 8.46 6q-3.11 5.64-.9 11.77.37 1.02 1.06.19.99-1.21 2.63-1.5l6.04-.21q3.66-.37 6.33 1.91a.4.39 34.9 0 0 .6-.1q.67-1.25 1.78-2.1c4.85-3.51 3.71-10.06-2.43-11.26Q15.92.24 8.05 4.67"/><path fill="#f4cac0" d="M23.57 4.7c2.38 4.31 2.36 5.74 2.43 11.26q-1.11.85-1.78 2.1a.4.39 34.9 0 1-.6.1q-2.67-2.28-6.33-1.91 1.11-.66 1-2 6.02 1.52 5-4.5c-1.24-2.8-4.06-3.24-6.03-1.01q-.7.79-1.47 1.51l-.29-.21Q12.17 4.58 8.71 10q-.98 3.31 2.29 4.54l.25 1.92q-1.64.29-2.63 1.5-.69.83-1.06-.19-2.21-6.13.9-11.77 1.21-1.74-.41-1.33 7.87-4.43 15.52.03"/><path fill="#d6d8db" d="M8.05 4.67q1.62-.41.41 1.33-2.83 3.46-2.14 8.03.43 2.83-1.83 1.08C.74 12.2 3.28 5.72 8.05 4.67m15.52.03c6.14 1.2 7.28 7.75 2.43 11.26-.07-5.52-.05-6.95-2.43-11.26m-.28 5.05q-.08 5.97-5.83 3.75l-1.67-2v-1.25q.77-.72 1.47-1.51c1.97-2.23 4.79-1.79 6.03 1.01m-1.94 1.46c.27-1.12-2.32-1.28-2.58-.12a.5.32 1.1 0 0 .55.37l1.43-.09a.65.15-2.2 0 0 .6-.16m-5.85-1.17c-.8 6.06-7.58 4.66-6.79-.04q3.46-5.42 6.79.04m-1.84 1.12c.06-.68-2.14-.98-2.66-.2a.33.19 12.9 0 0 .33.31l1.68.14a.63.3 4.4 0 0 .65-.25"/><path fill="#5c8194" d="M23.29 9.75q1.02 6.02-5 4.5l-.83-.75q5.75 2.22 5.83-3.75M8.71 10c-.79 4.7 5.99 6.1 6.79.04l.29.21v1.25q-1.17 3.43-4.79 3.04Q7.73 13.31 8.71 10"/><path fill="#5c8194" d="M18.77 11.09c.26-1.16 2.85-1 2.58.12a.65.15-2.2 0 1-.6.16l-1.43.09a.5.32 1.1 0 1-.55-.37M11 10.96c.52-.78 2.72-.48 2.66.2a.63.3 4.4 0 1-.65.25l-1.68-.14a.33.19 12.9 0 1-.33-.31"/><path fill="#e6bca8" d="m15.79 11.5 1.67 2 .83.75q.11 1.34-1 2l-6.04.21-.25-1.92q3.62.39 4.79-3.04"/><path fill="#5c8194" d="M16.25 19.46q-2.62-.74-5.32-.07c2.43-1.24 3.16-.27 5.59-.54q5.46-.6-.27.61"/><path fill="#e6bca8" d="M16.25 19.46q.55.08.56.5a.52.38 5.6 0 1-.6.36Q14.8 20.09 14 21.5l-2.11 1.43a.69.59-39.8 0 1-.78-.01l-1.36-1.21-.29-.71 1.47-1.61q2.7-.67 5.32.07"/><path fill="#5c8194" d="M6.79 19.5 9.46 21l.29.71-3.21-1.46z"/><path fill="#e8e7e7" d="m14 21.5 1.28-.59a1.05.82-40.3 0 1 .82-.03q5.42 2.52 1.77 7.2a1.25.64 6.5 0 1-.85.32q-4.14.17-4.63-4.02a1.27.48 76.2 0 1 .11-.89z"/></svg>

<?xml version="1.0" encoding="UTF-8" standalone="no"?>
<!DOCTYPE svg PUBLIC "-//W3C//DTD SVG 1.1//EN" "http://www.w3.org/Graphics/SVG/1.1/DTD/svg11.dtd">
<svg xmlns="http://www.w3.org/2000/svg" version="1.1" viewBox="0 0 32 32">
<g stroke-width="2.00" fill="none" stroke-linecap="butt">
<path stroke="#85929a" vector-effect="non-scaling-stroke" d="
  M 6.54 20.25
  L 9.75 21.71"
/>
<path stroke="#caafa4" vector-effect="non-scaling-stroke" d="
  M 9.75 21.71
  L 11.11 22.92
  A 0.69 0.59 -39.8 0 0 11.89 22.93
  L 14.00 21.50"
/>
<path stroke="#cbc5c3" vector-effect="non-scaling-stroke" d="
  M 14.00 21.50
  L 12.50 23.49
  A 1.27 0.48 76.2 0 0 12.39 24.38
  Q 12.88 28.57 17.02 28.40
  A 1.25 0.64 6.5 0 0 17.87 28.08
  Q 21.52 23.40 16.10 20.88
  A 1.05 0.82 -40.3 0 0 15.28 20.91
  L 14.00 21.50"
/>
<path stroke="#caafa4" vector-effect="non-scaling-stroke" d="
  M 14.00 21.50
  Q 14.80 20.09 16.21 20.32
  A 0.52 0.38 5.6 0 0 16.81 19.96
  Q 16.80 19.54 16.25 19.46"
/>
<path stroke="#85929a" vector-effect="non-scaling-stroke" d="
  M 16.25 19.46
  Q 21.98 18.25 16.52 18.85
  C 14.09 19.12 13.36 18.15 10.93 19.39"
/>
<path stroke="#caafa4" vector-effect="non-scaling-stroke" d="
  M 10.93 19.39
  L 9.46 21.00"
/>
<path stroke="#85929a" vector-effect="non-scaling-stroke" d="
  M 9.46 21.00
  L 6.79 19.50"
/>
<path stroke="#c2bdbd" vector-effect="non-scaling-stroke" d="
  M 8.05 4.67
  C 3.28 5.72 0.74 12.20 4.49 15.11
  Q 6.75 16.86 6.32 14.03
  Q 5.63 9.46 8.46 6.00"
/>
<path stroke="#d1b6b0" vector-effect="non-scaling-stroke" d="
  M 8.46 6.00
  Q 5.35 11.64 7.56 17.77
  Q 7.93 18.79 8.62 17.96
  Q 9.61 16.75 11.25 16.46"
/>
<path stroke="#caafa4" vector-effect="non-scaling-stroke" d="
  M 11.25 16.46
  L 17.29 16.25"
/>
<path stroke="#d1b6b0" vector-effect="non-scaling-stroke" d="
  M 17.29 16.25
  Q 20.95 15.88 23.62 18.16
  A 0.40 0.39 34.9 0 0 24.22 18.06
  Q 24.89 16.81 26.00 15.96"
/>
<path stroke="#c2bdbd" vector-effect="non-scaling-stroke" d="
  M 26.00 15.96
  C 30.85 12.45 29.71 5.90 23.57 4.70"
/>
<path stroke="#d1b6b0" vector-effect="non-scaling-stroke" d="
  M 23.57 4.70
  Q 15.92 0.24 8.05 4.67"
/>
<path stroke="#e5d1ce" vector-effect="non-scaling-stroke" d="
  M 23.57 4.70
  C 25.95 9.01 25.93 10.44 26.00 15.96"
/>
<path stroke="#edc3b4" vector-effect="non-scaling-stroke" d="
  M 17.29 16.25
  Q 18.40 15.59 18.29 14.25"
/>
<path stroke="#a8a6aa" vector-effect="non-scaling-stroke" d="
  M 18.29 14.25
  Q 24.31 15.77 23.29 9.75"
/>
<path stroke="#e5d1ce" vector-effect="non-scaling-stroke" d="
  M 23.29 9.75
  C 22.05 6.95 19.23 6.51 17.26 8.74
  Q 16.56 9.53 15.79 10.25"
/>
<path stroke="#a8a6aa" vector-effect="non-scaling-stroke" d="
  M 15.79 10.25
  L 15.50 10.04"
/>
<path stroke="#e5d1ce" vector-effect="non-scaling-stroke" d="
  M 15.50 10.04
  Q 12.17 4.58 8.71 10.00"
/>
<path stroke="#a8a6aa" vector-effect="non-scaling-stroke" d="
  M 8.71 10.00
  Q 7.73 13.31 11.00 14.54"
/>
<path stroke="#edc3b4" vector-effect="non-scaling-stroke" d="
  M 11.00 14.54
  L 11.25 16.46"
/>
<path stroke="#e5d1ce" vector-effect="non-scaling-stroke" d="
  M 8.46 6.00
  Q 9.67 4.26 8.05 4.67"
/>
<path stroke="#99adb8" vector-effect="non-scaling-stroke" d="
  M 23.29 9.75
  Q 23.21 15.72 17.46 13.50"
/>
<path stroke="#decac2" vector-effect="non-scaling-stroke" d="
  M 17.46 13.50
  L 15.79 11.50"
/>
<path stroke="#99adb8" vector-effect="non-scaling-stroke" d="
  M 15.79 11.50
  L 15.79 10.25"
/>
<path stroke="#a19f9e" vector-effect="non-scaling-stroke" d="
  M 18.29 14.25
  L 17.46 13.50"
/>
<path stroke="#99adb8" vector-effect="non-scaling-stroke" d="
  M 15.50 10.04
  C 14.70 16.10 7.92 14.70 8.71 10.00"
/>
<path stroke="#a19f9e" vector-effect="non-scaling-stroke" d="
  M 15.79 11.50
  Q 14.62 14.93 11.00 14.54"
/>
<path stroke="#99adb8" vector-effect="non-scaling-stroke" d="
  M 21.35 11.21
  C 21.62 10.09 19.03 9.93 18.77 11.09
  A 0.50 0.32 1.1 0 0 19.32 11.46
  L 20.75 11.37
  A 0.65 0.15 -2.2 0 0 21.35 11.21"
/>
<path stroke="#99adb8" vector-effect="non-scaling-stroke" d="
  M 13.66 11.16
  C 13.72 10.48 11.52 10.18 11.00 10.96
  A 0.33 0.19 12.9 0 0 11.33 11.27
  L 13.01 11.41
  A 0.63 0.30 4.4 0 0 13.66 11.16"
/>
<path stroke="#a19f9e" vector-effect="non-scaling-stroke" d="
  M 16.25 19.46
  Q 13.63 18.72 10.93 19.39"
/>
<path stroke="#a19f9e" vector-effect="non-scaling-stroke" d="
  M 9.75 21.71
  L 9.46 21.00"
/>
</g>
<path fill="#ada29f" d="
  M 16.44 32.00
  L 15.69 32.00
  Q 12.92 29.32 10.53 24.44
  Q 9.57 22.49 6.99 21.40
  A 1.01 0.57 15.1 0 1 6.36 20.78
  Q 6.33 20.49 6.54 20.25
  L 9.75 21.71
  L 11.11 22.92
  A 0.69 0.59 -39.8 0 0 11.89 22.93
  L 14.00 21.50
  L 12.50 23.49
  A 1.27 0.48 76.2 0 0 12.39 24.38
  Q 12.88 28.57 17.02 28.40
  A 1.25 0.64 6.5 0 0 17.87 28.08
  Q 21.52 23.40 16.10 20.88
  A 1.05 0.82 -40.3 0 0 15.28 20.91
  L 14.00 21.50
  Q 14.80 20.09 16.21 20.32
  A 0.52 0.38 5.6 0 0 16.81 19.96
  Q 16.80 19.54 16.25 19.46
  Q 21.98 18.25 16.52 18.85
  C 14.09 19.12 13.36 18.15 10.93 19.39
  L 9.46 21.00
  L 6.79 19.50
  Q 5.39 17.73 3.24 16.59
  A 1.39 1.21 7.4 0 1 2.62 15.89
  C 0.57 10.06 1.13 5.35 7.46 2.89
  Q 19.25 -1.68 29.11 5.70
  A 1.65 0.80 25.7 0 1 29.75 6.50
  Q 30.96 11.14 29.54 15.72
  A 1.12 0.01 -39.9 0 1 28.69 16.44
  L 25.83 18.83
  A 1.00 0.71 68.4 0 0 25.61 19.72
  C 25.96 21.35 22.94 22.58 21.84 23.69
  A 1.98 1.51 81.0 0 0 21.38 24.54
  Q 20.23 29.12 16.44 32.00
  Z
  M 8.05 4.67
  C 3.28 5.72 0.74 12.20 4.49 15.11
  Q 6.75 16.86 6.32 14.03
  Q 5.63 9.46 8.46 6.00
  Q 5.35 11.64 7.56 17.77
  Q 7.93 18.79 8.62 17.96
  Q 9.61 16.75 11.25 16.46
  L 17.29 16.25
  Q 20.95 15.88 23.62 18.16
  A 0.40 0.39 34.9 0 0 24.22 18.06
  Q 24.89 16.81 26.00 15.96
  C 30.85 12.45 29.71 5.90 23.57 4.70
  Q 15.92 0.24 8.05 4.67
  Z"
/>
<path fill="#f4cac0" d="
  M 23.57 4.70
  C 25.95 9.01 25.93 10.44 26.00 15.96
  Q 24.89 16.81 24.22 18.06
  A 0.40 0.39 34.9 0 1 23.62 18.16
  Q 20.95 15.88 17.29 16.25
  Q 18.40 15.59 18.29 14.25
  Q 24.31 15.77 23.29 9.75
  C 22.05 6.95 19.23 6.51 17.26 8.74
  Q 16.56 9.53 15.79 10.25
  L 15.50 10.04
  Q 12.17 4.58 8.71 10.00
  Q 7.73 13.31 11.00 14.54
  L 11.25 16.46
  Q 9.61 16.75 8.62 17.96
  Q 7.93 18.79 7.56 17.77
  Q 5.35 11.64 8.46 6.00
  Q 9.67 4.26 8.05 4.67
  Q 15.92 0.24 23.57 4.70
  Z"
/>
<path fill="#d6d8db" d="
  M 8.05 4.67
  Q 9.67 4.26 8.46 6.00
  Q 5.63 9.46 6.32 14.03
  Q 6.75 16.86 4.49 15.11
  C 0.74 12.20 3.28 5.72 8.05 4.67
  Z"
/>
<path fill="#d6d8db" d="
  M 23.57 4.70
  C 29.71 5.90 30.85 12.45 26.00 15.96
  C 25.93 10.44 25.95 9.01 23.57 4.70
  Z"
/>
<path fill="#d6d8db" d="
  M 23.29 9.75
  Q 23.21 15.72 17.46 13.50
  L 15.79 11.50
  L 15.79 10.25
  Q 16.56 9.53 17.26 8.74
  C 19.23 6.51 22.05 6.95 23.29 9.75
  Z
  M 21.35 11.21
  C 21.62 10.09 19.03 9.93 18.77 11.09
  A 0.50 0.32 1.1 0 0 19.32 11.46
  L 20.75 11.37
  A 0.65 0.15 -2.2 0 0 21.35 11.21
  Z"
/>
<path fill="#d6d8db" d="
  M 15.50 10.04
  C 14.70 16.10 7.92 14.70 8.71 10.00
  Q 12.17 4.58 15.50 10.04
  Z
  M 13.66 11.16
  C 13.72 10.48 11.52 10.18 11.00 10.96
  A 0.33 0.19 12.9 0 0 11.33 11.27
  L 13.01 11.41
  A 0.63 0.30 4.4 0 0 13.66 11.16
  Z"
/>
<path fill="#5c8194" d="
  M 23.29 9.75
  Q 24.31 15.77 18.29 14.25
  L 17.46 13.50
  Q 23.21 15.72 23.29 9.75
  Z"
/>
<path fill="#5c8194" d="
  M 8.71 10.00
  C 7.92 14.70 14.70 16.10 15.50 10.04
  L 15.79 10.25
  L 15.79 11.50
  Q 14.62 14.93 11.00 14.54
  Q 7.73 13.31 8.71 10.00
  Z"
/>
<path fill="#5c8194" d="
  M 18.77 11.09
  C 19.03 9.93 21.62 10.09 21.35 11.21
  A 0.65 0.15 -2.2 0 1 20.75 11.37
  L 19.32 11.46
  A 0.50 0.32 1.1 0 1 18.77 11.09
  Z"
/>
<path fill="#5c8194" d="
  M 11.00 10.96
  C 11.52 10.18 13.72 10.48 13.66 11.16
  A 0.63 0.30 4.4 0 1 13.01 11.41
  L 11.33 11.27
  A 0.33 0.19 12.9 0 1 11.00 10.96
  Z"
/>
<path fill="#e6bca8" d="
  M 15.79 11.50
  L 17.46 13.50
  L 18.29 14.25
  Q 18.40 15.59 17.29 16.25
  L 11.25 16.46
  L 11.00 14.54
  Q 14.62 14.93 15.79 11.50
  Z"
/>
<path fill="#5c8194" d="
  M 16.25 19.46
  Q 13.63 18.72 10.93 19.39
  C 13.36 18.15 14.09 19.12 16.52 18.85
  Q 21.98 18.25 16.25 19.46
  Z"
/>
<path fill="#e6bca8" d="
  M 16.25 19.46
  Q 16.80 19.54 16.81 19.96
  A 0.52 0.38 5.6 0 1 16.21 20.32
  Q 14.80 20.09 14.00 21.50
  L 11.89 22.93
  A 0.69 0.59 -39.8 0 1 11.11 22.92
  L 9.75 21.71
  L 9.46 21.00
  L 10.93 19.39
  Q 13.63 18.72 16.25 19.46
  Z"
/>
<path fill="#5c8194" d="
  M 6.79 19.50
  L 9.46 21.00
  L 9.75 21.71
  L 6.54 20.25
  L 6.79 19.50
  Z"
/>
<path fill="#e8e7e7" d="
  M 14.00 21.50
  L 15.28 20.91
  A 1.05 0.82 -40.3 0 1 16.10 20.88
  Q 21.52 23.40 17.87 28.08
  A 1.25 0.64 6.5 0 1 17.02 28.40
  Q 12.88 28.57 12.39 24.38
  A 1.27 0.48 76.2 0 1 12.50 23.49
  L 14.00 21.50
  Z"
/>
</svg>
